X:9
T:9. Schellen-Neuener
K: Eb
M:3/4
L:1/8
G,B, |: \
M:4/4
L:1/4
EE E2 | GE G2 | \
M:3/4
L:1/8
F2 DA GF | (DF) ED CD | \
M:4/4
L:1/4
EE E2 | GE G2 |
% End 1st line Schellen-Neuener
M:3/4
L:1/8
FEDAGF |1 E2 z2 EF :|2 E2 z2 EF |: \
M:4/4
L:1/4
GE G2 | FD F2 | EE E2 | DB, D2 |
EE E2 | GE G2 |1 \
M:3/4
L:1/8
FEDAGF | E2 z2 EF :|2 \
M:3/4
L:1/8
AG^FG=AB | G2 z2 AB ||
% End part A of Schellen-Neuener
K:Ab
M:4/4
L:1/4
AA A2 | cA c2 | \
M:3/4
L:1/8
B2 Gd cA | (AB) AG FG | \
M:4/4
L:1/4
AA A2 | cA A2 |
% End 1st line part B of Schellen-Neuner
M:3/4
L:1/8
BAGFEG |1 A2 z2 AB :|2 A2 z2 Ac |: \
M:4/4
L:1/4
cA c2 | BG B2 | AF A2 | GE G2 |
% end 2nd line part B of Schellen-Neuner
AA A2 | cA c2 |1 \
M:3/4
L:1/8
BAGFEG | A2 z2 Ac :|2 \
M:3/4
L:1/8
dc=Bc_BG | A2 z2 |]
N:Written with second voice, 2012 Mar 30

